assets/tokens/idon.svg

<svg width="253" height="248" viewBox="0 0 253 248" fill="none" xmlns="http://www.w3.org/2000/svg">
<path d="M252 124C252 191.912 195.831 247 126.5 247C57.1694 247 1 191.912 1 124C1 56.0877 57.1694 1 126.5 1C195.831 1 252 56.0877 252 124Z" fill="white" stroke="#E11D48" stroke-width="2"/>
<path d="M98.5002 90.2999C93.5665 85.5628 88.1331 81.5128 82.2002 78.1499V174.45H111.85V200.3H128.45V173.15C140.084 171.083 149.1 166.367 155.5 159C156.933 157.371 158.249 155.671 159.45 153.9C154.047 152.215 149.047 150.015 144.45 147.3C143.52 148.68 142.487 149.963 141.35 151.15C138.184 154.483 134.717 157.017 130.95 158.75C127.15 160.517 123.017 161.533 118.55 161.8C118.117 161.833 117.667 161.85 117.2 161.85C117.1 161.85 117.017 161.85 116.95 161.85C116.884 161.85 116.8 161.85 116.7 161.85H98.5002V90.2999Z" fill="url(#paint0_linear_69_4)"/>
<path d="M100.6 92.4002C99.9104 91.7003 99.2104 91.0003 98.5 90.3002V161.85H116.7C116.8 161.85 116.883 161.85 116.95 161.85C117.017 161.85 117.1 161.85 117.2 161.85C117.667 161.85 118.117 161.834 118.55 161.8C123.017 161.534 127.15 160.517 130.95 158.75C134.717 157.017 138.183 154.484 141.35 151.15C142.486 149.963 143.52 148.68 144.45 147.3C143.864 146.942 143.28 146.576 142.7 146.2C141.885 147.377 141.002 148.477 140.05 149.5C137.117 152.634 133.917 155.034 130.45 156.7C126.95 158.367 123.15 159.317 119.05 159.55C118.65 159.584 118.233 159.6 117.8 159.6C117.7 159.6 117.633 159.6 117.6 159.6C117.533 159.6 117.45 159.6 117.35 159.6H100.6V92.4002ZM82.2 78.1502C81.4742 77.7385 80.7409 77.3385 80 76.9502V175.95H109.85V202.6H130.45V174.65C141.383 172.517 150.217 167.65 156.95 160.05C158.543 158.271 159.993 156.421 161.3 154.5C160.686 154.312 160.07 154.112 159.45 153.9C158.249 155.671 156.932 157.371 155.5 159C149.1 166.367 140.083 171.084 128.45 173.15V200.3H111.85V174.45H82.2V78.1502Z" fill="#402B2F"/>
<path d="M142.65 90.5C139.317 86.0667 135.417 82.8667 130.95 80.9C127.683 79.5 124.1 78.75 120.2 78.65C119.867 78.6167 119.517 78.6 119.15 78.6H98.5V90.3C99.2104 91.0001 99.9104 91.7001 100.6 92.4V80.7H119.6C119.933 80.7 120.25 80.7167 120.55 80.75C124.15 80.85 127.45 81.5667 130.45 82.9C134.583 84.7667 138.183 87.8 141.25 92C146.683 99.4667 149.4 108.633 149.4 119.5C149.4 130.769 147.167 139.669 142.7 146.2C143.28 146.575 143.864 146.942 144.45 147.3C149.15 140.443 151.5 131.176 151.5 119.5C151.5 108.033 148.55 98.3667 142.65 90.5ZM128.8 67.45C140.067 69.2167 149.1 74.1667 155.9 82.3C164.633 92.6667 169 105.467 169 120.7C169 133.565 165.817 144.632 159.45 153.9C160.07 154.111 160.686 154.311 161.3 154.5C167.833 145.004 171.1 133.704 171.1 120.6C171.1 104.9 166.517 91.7 157.35 81C150.217 72.6333 141.25 67.5333 130.45 65.7V45H109.85V64.9H80V76.95C80.7409 77.3383 81.4742 77.7383 82.2 78.15V66.65H111.65V47.35H128.8V67.45Z" fill="#6D4A51"/>
<path d="M155.9 82.3001C149.1 74.1668 140.067 69.2168 128.8 67.4501V47.3501H111.65V66.6501H82.2002V78.1501C88.1331 81.513 93.5665 85.563 98.5002 90.3001V78.6001H119.15C119.517 78.6001 119.867 78.6168 120.2 78.6501C124.1 78.7501 127.684 79.5001 130.95 80.9001C135.417 82.8668 139.317 86.0668 142.65 90.5001C148.55 98.3668 151.5 108.033 151.5 119.5C151.5 131.177 149.15 140.443 144.45 147.3C149.047 150.015 154.047 152.215 159.45 153.9C165.817 144.632 169 133.565 169 120.7C169 105.467 164.634 92.6668 155.9 82.3001Z" fill="#BB828E"/>
<path d="M161.325 154.5C167.842 145.004 171.1 133.704 171.1 120.6C171.1 104.9 166.517 91.7 157.35 81C150.217 72.6333 141.25 67.5333 130.45 65.7V45H109.85V64.9H80V76.95M142.7 146.2C147.167 139.669 149.4 130.769 149.4 119.5C149.4 108.633 146.683 99.4667 141.25 92C138.183 87.8 134.583 84.7667 130.45 82.9C127.45 81.5667 124.15 80.85 120.55 80.75C120.25 80.7167 119.933 80.7 119.6 80.7H100.6V92.425M130.45 174.65V202.6H109.85V175.95H80V76.95" stroke="#FF9191" stroke-linecap="round" stroke-linejoin="round"/>
<path d="M100.6 92.4248V159.6H117.35C117.45 159.6 117.533 159.6 117.6 159.6C117.633 159.6 117.7 159.6 117.8 159.6C118.233 159.6 118.65 159.583 119.05 159.55C123.15 159.316 126.95 158.366 130.45 156.7C133.916 155.033 137.116 152.633 140.05 149.5C141.002 148.477 141.885 147.377 142.7 146.2M161.325 154.5C160.001 156.421 158.543 158.271 156.95 160.05C150.216 167.65 141.383 172.516 130.45 174.65" stroke="#D47373" stroke-linecap="round" stroke-linejoin="round"/>
<defs>
<linearGradient id="paint0_linear_69_4" x1="93.4502" y1="166.5" x2="148.05" y2="111.9" gradientUnits="userSpaceOnUse">
<stop stop-color="#BB828E"/>
<stop offset="1" stop-color="#805760"/>
</linearGradient>
</defs>
</svg>

<svg viewBox="0 0 253 248" fill="none" xmlns="http://www.w3.org/2000/svg">
    <path d="M252 124c0 67.912-56.169 123-125.5 123C57.17 247 1 191.912 1 124S57.17 1 126.5 1C195.831 1 252 56.088 252 124Z" fill="#fff" stroke="#E11D48" stroke-width="2"/>
    <path d="M98.5 90.3a81.41 81.41 0 0 0-16.3-12.15v96.3h29.65v25.85h16.6v-27.15c11.634-2.067 20.65-6.783 27.05-14.15a51.353 51.353 0 0 0 3.95-5.1c-5.403-1.685-10.403-3.885-15-6.6a28.905 28.905 0 0 1-3.1 3.85c-3.166 3.333-6.633 5.867-10.4 7.6-3.8 1.767-7.933 2.783-12.4 3.05-.433.033-.883.05-1.35.05H98.5V90.3Z" fill="url(#a)"/>
    <path d="M100.6 92.4c-.69-.7-1.39-1.4-2.1-2.1v71.55h18.7c.467 0 .917-.016 1.35-.05 4.467-.266 8.6-1.283 12.4-3.05 3.767-1.733 7.233-4.266 10.4-7.6a28.984 28.984 0 0 0 3.1-3.85 77.267 77.267 0 0 1-1.75-1.1 29.414 29.414 0 0 1-2.65 3.3c-2.933 3.134-6.133 5.534-9.6 7.2-3.5 1.667-7.3 2.617-11.4 2.85-.4.034-.817.05-1.25.05h-17.2V92.4ZM82.2 78.15a75.377 75.377 0 0 0-2.2-1.2v99h29.85v26.65h20.6v-27.95c10.933-2.133 19.767-7 26.5-14.6a53.063 53.063 0 0 0 4.35-5.55 60.104 60.104 0 0 1-1.85-.6 51.503 51.503 0 0 1-3.95 5.1c-6.4 7.367-15.417 12.084-27.05 14.15v27.15h-16.6v-25.85H82.2v-96.3Z" fill="#402B2F"/>
    <path d="M142.65 90.5c-3.333-4.433-7.233-7.633-11.7-9.6-3.267-1.4-6.85-2.15-10.75-2.25-.333-.033-.683-.05-1.05-.05H98.5v11.7c.71.7 1.41 1.4 2.1 2.1V80.7h19c.333 0 .65.017.95.05 3.6.1 6.9.817 9.9 2.15 4.133 1.867 7.733 4.9 10.8 9.1 5.433 7.467 8.15 16.633 8.15 27.5 0 11.269-2.233 20.169-6.7 26.7.58.375 1.164.742 1.75 1.1 4.7-6.857 7.05-16.124 7.05-27.8 0-11.467-2.95-21.133-8.85-29ZM128.8 67.45c11.267 1.767 20.3 6.717 27.1 14.85 8.733 10.367 13.1 23.167 13.1 38.4 0 12.865-3.183 23.932-9.55 33.2.62.211 1.236.411 1.85.6 6.533-9.496 9.8-20.796 9.8-33.9 0-15.7-4.583-28.9-13.75-39.6-7.133-8.367-16.1-13.467-26.9-15.3V45h-20.6v19.9H80v12.05c.74.388 1.474.788 2.2 1.2v-11.5h29.45v-19.3h17.15v20.1Z" fill="#6D4A51"/>
    <path d="M155.9 82.3c-6.8-8.133-15.833-13.083-27.1-14.85v-20.1h-17.15v19.3H82.2v11.5A81.41 81.41 0 0 1 98.5 90.3V78.6h20.65c.367 0 .717.017 1.05.05 3.9.1 7.484.85 10.75 2.25 4.467 1.967 8.367 5.167 11.7 9.6 5.9 7.867 8.85 17.533 8.85 29 0 11.677-2.35 20.943-7.05 27.8 4.597 2.715 9.597 4.915 15 6.6 6.367-9.268 9.55-20.335 9.55-33.2 0-15.233-4.366-28.033-13.1-38.4Z" fill="#BB828E"/>
    <path d="M161.325 154.5c6.517-9.496 9.775-20.796 9.775-33.9 0-15.7-4.583-28.9-13.75-39.6-7.133-8.367-16.1-13.467-26.9-15.3V45h-20.6v19.9H80v12.05m62.7 69.25c4.467-6.531 6.7-15.431 6.7-26.7 0-10.867-2.717-20.033-8.15-27.5-3.067-4.2-6.667-7.233-10.8-9.1-3-1.333-6.3-2.05-9.9-2.15-.3-.033-.617-.05-.95-.05h-19v11.725m29.85 82.225v27.95h-20.6v-26.65H80v-99" stroke="#FF9191" stroke-linecap="round" stroke-linejoin="round"/>
    <path d="M100.6 92.425V159.6h17.2c.433 0 .85-.017 1.25-.05 4.1-.234 7.9-1.184 11.4-2.85 3.466-1.667 6.666-4.067 9.6-7.2a29.414 29.414 0 0 0 2.65-3.3m18.625 8.3a55.702 55.702 0 0 1-4.375 5.55c-6.734 7.6-15.567 12.466-26.5 14.6" stroke="#D47373" stroke-linecap="round" stroke-linejoin="round"/>
    <defs>
        <linearGradient id="a" x1="93.45" y1="166.5" x2="148.05" y2="111.9" gradientUnits="userSpaceOnUse">
            <stop stop-color="#BB828E"/>
            <stop offset="1" stop-color="#805760"/>
        </linearGradient>
    </defs>
</svg>
